X:1089
T:Menuet & Trio
C:Gottfried Heinrich St\"olzel, arr. Trio by Johann Sebastian Bach
F:http://abc.musicaviva.com/tunes/stolzel-gottfried-heinrich/stolzel-bach-minuet/stolzel-bach-minuet-pno2.abc
V:1 Program 1 6 up %Harpsichord
V:2 Program 1 6 merge down %Harpsichord
V:3 Program 1 6 bass %Harpsichord
M:3/4
L:1/8
K:Gm
V:1
g2dgdg|a2dada|b2a2g2|^f2=efd2|gdcdfd|ec=Bc=ec|fc_Bc_ec|
dBABFB|fBABFB|dBABFB|f2B2A2|[D6F6B6]|=B2GBGB|c2GcGc|d2GdGd|
e2dec2|fc=BcFf|gc=BcGg|_a2G2=B2|[E6G6c6]|ecBcfc|dBABFd|b2a2g2|
^f2=efd2|g2dgdg|a2dada|b2g2^f2|g6|dG^FGDG|BG^FGDG|d2G2^F2|[B,6D6G
 6]|]
V:2
L:1/4
K:Gm
[GBd]z2|[Ad]z2|dd^c|[A2d2]z|z3|z3|z3|
z3|z3|z3|z3|z3|[DG]z2|[CG]z2|[DG]z2|
[Gc]z2|z3|z3|z3|z3|z3|z3|dd^c|
d2z|[GBd]z2|[Ad]z2|z3|z3|z3|z3|z3|z3|]
V:3
K:Gm
[Gdg]z2|[^fd']z2|g^f=e|d2z|=b2z|cc'b|a2z|
bBc|d2z|e2z|def|Bd/c/B/A/|[G2g2]z|ez2|[=Bg]z2|
[c2g2]z|ddz|e2z|fgG|cc'b|a2f|b2z|g^f=e|
d2z|[bd']z2|[^fad']z2|gbd'|gGA|B2z|c2z|Bcd|G3|]
T:Menuet-Trio di J. S. Bach
T:BWV 929
C:Johann Sebastian Bach
B:From "Klavierb\"uchlein f\"ur Wilhelm Friedemann Bach".
H:In "Klavierb\"uchlein" this piece is used as a trio to a minuet by G. H. St\"olzel.
H:A variant of this composition is included in the French Suite no. 3 (BWV 814).
M:3/4
L:1/8
V:1 program 1 20
V:2 program 1 20
V:3 bass program 1 20
K:Gmin
V:1
d6|e2d2c2-|cBcAd2|BAGABc|dcedgf|
V:2
B6-|B4A2-|A2G2^F2|G4z2|z6|
V:3
G,DGFED|CB,CDEC|D2D,2D2|G,2B,2D2|G2=F2E2-|
%
V:1
f6-|f2edcd|1B6:|2B6|:d6-|d2c2=B2|
V:2
AGBAed|d2cBA2|1B6:|2B6|:F2G2_A2|G4F2|
V:3
E2D2A,2|B,2E2F2|1B,A,DCB,A,:|2B,2F,2D,2|:B,,F,B,_A,G,F,|E,D,E,F,G,E,|
%
V:1
cedc=Bd|fedecd|e6-|edg^fba|d2cBAB|1G^FGABc:|2G6|]
V:2
E2_A2G2-|G6-|G^F=AG_BA|c6|B2AG^F2|1G2z2z2:|2G6|]
V:3
_A,2F,2G,2|C,2C2_B,2|=A,2B,2G,2|^F,2D,2F,2|G,2C,2D,2|1G,,2G,2A,2:|2G,,6|]
W:
W:
W:  From Musica Viva - http://www.musicaviva.com
W:  the Internet center for free sheet music downloads.
